imgs/padlock3.svg

<svg width="61" height="61" fill="none" xmlns="http://www.w3.org/2000/svg"><path d="M61 0H0v61L61 0z" fill="#FDF0EC"/><path d="M58.153 34.391c.55 1.774.847 3.657.847 5.609 0 4.12-1.332 7.926-3.569 11.043-1.627-.651-3.662-1.173-4.426-1.359-.774-.815-2.924-2.864-4.752-2.606-1.923.27-3.676 2.15-3.869 2.364a.994.994 0 00-.258.705c.029.874.002 1.804-.061 2.384-.695-.19-1.792-.452-2.689.267-.859.687-.936 1.879-.858 2.725-.84.346-1.654.844-1.9 1.521-.189.52-.078 1.092.134 1.657a18.835 18.835 0 01-6.632-2.504c.716-.906 1.239-1.974 1.462-2.474.416-.334 1.224-1.075 1.56-2.027.329-.935.202-2.024.108-2.55.405-1.25.896-3.226.347-4.189-.512-.894-1.866-1.429-2.623-1.667-.422-.578-1.387-1.627-2.971-1.899-.38-.04-1.264-.255-1.264-1.392 0-.832.713-2.351 1.245-3.273.828-.432 1.76-1.047 2.036-1.736.225-.561.322-1.516.358-1.98.398-.77 1.521-3.233.553-4.974-.339-.611-1.149-.997-1.771-1.213l-1.071-1.606a18.905 18.905 0 0110.487-4.156c.234-.724.538-1.401.895-2.036C28.138 19.311 19 28.599 19 40c0 11.58 9.421 21 21 21s21-9.42 21-21c0-2.72-.536-5.313-1.482-7.7-.43.72-.886 1.421-1.365 2.091z" fill="#F47C5C"/><path d="M50 15c-4.916 0-10 3.666-10 9.8 0 6.574 8.954 14.609 9.336 14.948a.998.998 0 001.328 0C51.046 39.409 60 31.374 60 24.8c0-6.134-5.084-9.8-10-9.8zm0 13a3 3 0 110-6 3 3 0 010 6z" fill="#F6A18B"/></svg>

<svg width="61" height="61" viewBox="0 0 61 61" fill="none" xmlns="http://www.w3.org/2000/svg">
<path d="M61 0H0V61L61 0Z" fill="#FDF0EC"/>
<path d="M58.153 34.391C58.703 36.165 59 38.048 59 40C59 44.12 57.668 47.926 55.431 51.043C53.804 50.392 51.769 49.87 51.005 49.684C50.231 48.869 48.081 46.82 46.253 47.078C44.33 47.348 42.577 49.228 42.384 49.442C42.209 49.634 42.117 49.887 42.126 50.147C42.155 51.021 42.128 51.951 42.065 52.531C41.37 52.341 40.273 52.079 39.376 52.798C38.517 53.485 38.44 54.677 38.518 55.523C37.678 55.869 36.864 56.367 36.618 57.044C36.429 57.564 36.54 58.136 36.752 58.701C34.357 58.286 32.12 57.422 30.12 56.197C30.836 55.291 31.359 54.223 31.582 53.723C31.998 53.389 32.806 52.648 33.142 51.696C33.471 50.761 33.344 49.672 33.25 49.146C33.655 47.896 34.146 45.92 33.597 44.957C33.085 44.063 31.731 43.528 30.974 43.29C30.552 42.712 29.587 41.663 28.003 41.391C27.623 41.351 26.739 41.136 26.739 39.999C26.739 39.167 27.452 37.648 27.984 36.726C28.812 36.294 29.744 35.679 30.02 34.99C30.245 34.429 30.342 33.474 30.378 33.01C30.776 32.24 31.899 29.777 30.931 28.036C30.592 27.425 29.782 27.039 29.16 26.823L28.089 25.217C31.003 22.864 34.622 21.357 38.576 21.061C38.81 20.337 39.114 19.66 39.471 19.025C28.138 19.311 19 28.599 19 40C19 51.58 28.421 61 40 61C51.579 61 61 51.58 61 40C61 37.28 60.464 34.687 59.518 32.3C59.088 33.02 58.632 33.721 58.153 34.391Z" fill="#F47C5C"/>
<path d="M50 15C45.084 15 40 18.666 40 24.8C40 31.374 48.954 39.409 49.336 39.748C49.525 39.916 49.763 40 50 40C50.237 40 50.475 39.916 50.664 39.748C51.046 39.409 60 31.374 60 24.8C60 18.666 54.916 15 50 15ZM50 28C48.343 28 47 26.657 47 25C47 23.343 48.343 22 50 22C51.657 22 53 23.343 53 25C53 26.657 51.657 28 50 28Z" fill="#F6A18B"/>
</svg>
